icons/mobile/24/svg/private-mode-24.svg

<svg width="24" height="24" viewBox="0 0 24 24" fill="none" xmlns="http://www.w3.org/2000/svg">
<path d="M7.09747 13.0445C8.46939 12.8165 10.2875 13.3528 10.7303 14.773C9.4706 15.9221 6.87597 15.1302 6.2586 13.6021V13.5992C6.23054 13.3065 6.86672 13.0815 7.09747 13.0445Z" fill="black"/>
<path d="M13.2654 14.7701C13.7096 13.3519 15.5262 12.8167 16.8973 13.0445C17.128 13.0815 17.7642 13.3065 17.7361 13.5992C17.1157 15.1268 14.5253 15.9212 13.2654 14.7701Z" fill="black"/>
<path fill-rule="evenodd" clip-rule="evenodd" d="M14.0779 5.3531C14.9396 4.65657 15.9164 4.45893 16.8777 4.65681L16.8787 4.65584C17.568 4.79784 18.0584 5.18443 18.3641 5.50056C18.6728 5.81988 18.8977 6.17458 19.0565 6.46053C19.3548 6.99803 19.6037 7.66142 19.6707 7.8199C20.1501 8.95339 20.5866 10.1595 20.8533 11.4674H20.8553L21.0447 11.5611C22.2569 11.9172 22.9351 13.2635 22.4852 14.4683L22.4861 14.4693C22.4255 14.6316 22.3498 14.78 22.2693 14.9176C22.303 15.7806 21.8025 16.3391 21.6268 16.5162C21.397 16.7476 21.1506 16.9024 21.0066 16.9869C20.7498 17.1376 20.3414 17.3202 20.41 17.2867L20.4041 17.2896C20.0908 17.4405 19.7662 17.6299 19.369 17.8668C18.9952 18.0896 18.5412 18.3648 18.0711 18.6051C17.1158 19.0932 15.8612 19.5649 14.3621 19.3717H14.3602C13.5654 19.2679 12.942 18.9419 12.5145 18.6842C12.3263 18.5707 12.135 18.443 11.9988 18.3541C11.8627 18.443 11.6714 18.5707 11.4832 18.6842C11.0557 18.9419 10.4331 19.2679 9.63848 19.3717H9.63555C8.13627 19.565 6.88191 19.0933 5.92657 18.6051C5.45667 18.3649 5.00337 18.0896 4.62969 17.8668C4.23879 17.6337 3.91782 17.4461 3.60919 17.2965C3.57455 17.2822 3.24168 17.1356 2.99005 16.9879C2.8452 16.9028 2.59762 16.7458 2.367 16.5123C2.19244 16.3354 1.69476 15.7772 1.7293 14.9176C1.6491 14.7803 1.57407 14.6321 1.51348 14.4703C1.05496 13.2453 1.77468 11.783 3.13067 11.5133C3.39669 10.1856 3.83788 8.96778 4.32208 7.82283L4.32305 7.81892C4.38801 7.666 4.63942 7.00074 4.93633 6.46541C5.09494 6.1795 5.31914 5.82409 5.62774 5.50447C5.93284 5.18853 6.42271 4.80223 7.11212 4.65974C8.07162 4.46155 9.05045 4.65649 9.91485 5.35408C10.6474 5.94547 11.2171 6.83331 11.7254 7.85603C11.8197 8.04532 11.9084 8.22933 11.9949 8.40388C12.0817 8.22863 12.1728 8.0453 12.2674 7.85506L12.2684 7.85213C12.7777 6.83136 13.347 5.94418 14.0779 5.3531ZM16.493 6.52986C15.6618 6.35827 14.9273 6.80646 13.9793 8.70662L12.6727 11.3678V11.3775C12.2218 11.373 11.771 11.3759 11.3201 11.3804V11.3697C11.3152 11.3594 11.1844 11.0866 10.9598 10.6265L10.0135 8.70955C9.0682 6.80674 8.33096 6.36035 7.49981 6.53181L7.367 6.57381C6.71501 6.84391 6.31056 8.03325 6.0838 8.56697C5.61378 9.67831 5.21729 10.7901 4.98907 11.9713C4.83149 12.7843 4.41285 13.3803 3.58477 13.3834C3.37302 13.3836 3.23123 13.6035 3.3045 13.7994C3.4812 14.2716 4.02472 14.5732 4.47833 14.7476C4.27415 14.801 3.66709 14.6777 3.63946 14.983C3.61822 15.2324 4.25204 15.4853 4.42364 15.566C5.97376 16.3124 7.40529 17.6329 9.21465 17.4928L9.39044 17.4742C10.2134 17.3667 10.8145 16.787 11.4881 16.4273C11.8059 16.2583 12.1928 16.2583 12.5106 16.4273C13.184 16.787 13.7845 17.3667 14.6072 17.4742C16.3822 17.703 17.7882 16.5031 19.2752 15.7174L19.574 15.566C19.7455 15.4827 20.3785 15.2324 20.3602 14.983C20.3353 14.6805 19.7276 14.8008 19.5203 14.7476C19.9739 14.5732 20.5165 14.2716 20.6932 13.7994C20.7665 13.6036 20.6227 13.3865 20.4139 13.3834L20.409 13.3804C19.5831 13.3804 19.1614 12.7816 19.0037 11.9683C18.7755 10.79 18.379 9.67526 17.909 8.56404C17.6823 8.02791 17.2782 6.84128 16.6268 6.57088L16.493 6.52986Z" fill="black"/>
</svg>

<!-- This Source Code Form is subject to the terms of the Mozilla Public
   - License, v. 2.0. If a copy of the MPL was not distributed with this
   - file, You can obtain one at http://mozilla.org/MPL/2.0/. -->
<svg xmlns="http://www.w3.org/2000/svg" width="24" height="24" fill="none" viewBox="0 0 24 24">
    <path fill="#000" d="M7.097 13.045c1.372-.229 3.19.308 3.633 1.728-1.26 1.15-3.854.357-4.471-1.17v-.004c-.028-.293.608-.518.838-.555m6.168 1.726c.445-1.418 2.261-1.953 3.632-1.726.231.037.867.262.84.555-.621 1.528-3.212 2.322-4.472 1.171" />
    <path fill="#000" fill-rule="evenodd" d="M14.078 5.353c.862-.696 1.838-.894 2.8-.696v-.001c.69.142 1.18.528 1.486.845.309.319.534.674.692.96.299.537.548 1.2.615 1.359.48 1.133.916 2.34 1.182 3.647h.002l.19.094c1.212.356 1.89 1.703 1.44 2.907l.001.001c-.06.163-.136.311-.217.449.034.863-.466 1.421-.642 1.598a3 3 0 0 1-.62.47c-.257.152-.666.334-.597.3l-.006.004c-.313.15-.638.34-1.035.577-.374.223-.828.498-1.298.738-.955.488-2.21.96-3.709.767h-.002c-.795-.104-1.418-.43-1.845-.688-.189-.113-.38-.241-.516-.33-.136.089-.328.217-.516.33-.427.258-1.05.584-1.845.688h-.002c-1.5.193-2.754-.279-3.71-.767-.47-.24-.923-.515-1.296-.738-.391-.233-.712-.42-1.02-.57a7 7 0 0 1-.62-.31 3 3 0 0 1-.623-.475c-.175-.177-.672-.735-.638-1.594a3 3 0 0 1-.216-.448c-.458-1.225.262-2.687 1.618-2.957.266-1.327.707-2.545 1.191-3.69l.001-.004c.065-.153.316-.818.613-1.354.159-.285.383-.64.692-.96.305-.316.795-.703 1.484-.845.96-.198 1.938-.004 2.803.694.732.591 1.302 1.48 1.81 2.502l.27.548.272-.549.001-.003c.51-1.02 1.079-1.908 1.81-2.499m2.415 1.177c-.831-.172-1.566.276-2.514 2.177l-1.306 2.66v.01q-.676-.004-1.353.003v-.01c-.005-.01-.136-.283-.36-.743l-.947-1.917C9.069 6.807 8.332 6.36 7.5 6.532l-.133.042c-.652.27-1.056 1.46-1.283 1.993-.47 1.111-.867 2.223-1.095 3.404-.158.813-.576 1.41-1.404 1.412-.212 0-.354.22-.28.416.176.473.72.774 1.173.949-.204.053-.81-.07-.839.235-.02.25.613.502.785.583 1.55.746 2.981 2.067 4.79 1.927l.176-.019c.823-.107 1.425-.687 2.098-1.047a1.1 1.1 0 0 1 1.023 0c.673.36 1.274.94 2.096 1.047 1.775.229 3.181-.97 4.668-1.757l.299-.151c.171-.083.804-.334.786-.583-.025-.303-.632-.182-.84-.235.454-.175.997-.476 1.173-.949a.31.31 0 0 0-.28-.416l-.004-.003c-.826 0-1.248-.598-1.405-1.412-.229-1.178-.625-2.293-1.095-3.404-.227-.536-.63-1.723-1.282-1.993z" clip-rule="evenodd" />
</svg>
